X: 13
T: Ballydesmond, The
Z: Gabby McKinley
S: https://thesession.org/tunes/239#setting49868
R: polka
M: 2/4
L: 1/8
K: Ador
|:AB|"C"cd/c/ "G"Bc/B/|"Am"AB/A/ "Em"G>A|"G"Bd ed|g2 ed|
"Am"ea ge|"G"dB GA/B/|"C"ce "Em"dB|"Am"A2:|
|:A2|ea ag/e/|"G"dg g>d|"Am"ea ab|"Em"g2 ed|
"Am"ea ge|"G"dB GA/B/|"Am"ce "Em"dB|"Am"A2 :|

